images/16758066.svg

<?xml version="1.0" encoding="UTF-8"?>
<svg xmlns="http://www.w3.org/2000/svg" xmlns:xlink="http://www.w3.org/1999/xlink" width="300pt" height="300pt" viewBox="0 0 300 300" version="1.1">
<defs>
<g>
<symbol overflow="visible" id="glyph0-0">
<path style="stroke:none;" d="M 0.546875 1.9375 L 0.546875 -7.75 L 6.046875 -7.75 L 6.046875 1.9375 Z M 1.171875 1.328125 L 5.4375 1.328125 L 5.4375 -7.140625 L 1.171875 -7.140625 Z M 1.171875 1.328125 "/>
</symbol>
<symbol overflow="visible" id="glyph0-1">
<path style="stroke:none;" d="M 4.328125 -7.28125 C 3.546875 -7.28125 2.921875 -6.984375 2.453125 -6.390625 C 1.992188 -5.804688 1.765625 -5.007812 1.765625 -4 C 1.765625 -2.988281 1.992188 -2.1875 2.453125 -1.59375 C 2.921875 -1.007812 3.546875 -0.71875 4.328125 -0.71875 C 5.117188 -0.71875 5.742188 -1.007812 6.203125 -1.59375 C 6.660156 -2.1875 6.890625 -2.988281 6.890625 -4 C 6.890625 -5.007812 6.660156 -5.804688 6.203125 -6.390625 C 5.742188 -6.984375 5.117188 -7.28125 4.328125 -7.28125 Z M 4.328125 -8.171875 C 5.453125 -8.171875 6.351562 -7.789062 7.03125 -7.03125 C 7.707031 -6.28125 8.046875 -5.269531 8.046875 -4 C 8.046875 -2.738281 7.707031 -1.726562 7.03125 -0.96875 C 6.351562 -0.21875 5.453125 0.15625 4.328125 0.15625 C 3.203125 0.15625 2.300781 -0.21875 1.625 -0.96875 C 0.957031 -1.71875 0.625 -2.726562 0.625 -4 C 0.625 -5.269531 0.957031 -6.28125 1.625 -7.03125 C 2.300781 -7.789062 3.203125 -8.171875 4.328125 -8.171875 Z M 4.328125 -8.171875 "/>
</symbol>
<symbol overflow="visible" id="glyph0-2">
<path style="stroke:none;" d="M 1.078125 -8.015625 L 2.171875 -8.015625 L 2.171875 -4.734375 L 6.109375 -4.734375 L 6.109375 -8.015625 L 7.1875 -8.015625 L 7.1875 0 L 6.109375 0 L 6.109375 -3.8125 L 2.171875 -3.8125 L 2.171875 0 L 1.078125 0 Z M 1.078125 -8.015625 "/>
</symbol>
</g>
</defs>
<g id="surface37345">
<rect x="0" y="0" width="300" height="300" style="fill:rgb(100%,100%,100%);fill-opacity:1;stroke:none;"/>
<path style="fill:none;stroke-width:1;stroke-linecap:butt;stroke-linejoin:miter;stroke:rgb(0%,0%,0%);stroke-opacity:1;stroke-miterlimit:10;" d="M 146.1875 117.285156 L 146.1875 117.285156 M 143.789062 115.484375 L 143.316406 116.414062 M 141.390625 113.683594 L 140.449219 115.542969 M 138.992188 111.882812 L 137.578125 114.671875 M 136.59375 110.082031 L 134.707031 113.800781 M 134.195312 108.28125 L 131.835938 112.929688 M 131.796875 106.476562 L 128.964844 112.058594 M 129.394531 104.675781 L 126.09375 111.1875 M 126.996094 102.875 L 123.222656 110.316406 M 124.597656 101.074219 L 120.351562 109.441406 M 123.636719 100.351562 L 119.199219 109.09375 "/>
<path style="fill:none;stroke-width:1.2;stroke-linecap:butt;stroke-linejoin:miter;stroke:rgb(0%,0%,0%);stroke-opacity:1;stroke-miterlimit:10;" d="M 146.1875 117.285156 L 169.457031 102.117188 "/>
<path style="fill:none;stroke-width:1.2;stroke-linecap:butt;stroke-linejoin:miter;stroke:rgb(0%,0%,0%);stroke-opacity:1;stroke-miterlimit:10;" d="M 147.691406 145.019531 L 146.1875 117.285156 "/>
<path style="fill:none;stroke-width:1.2;stroke-linecap:butt;stroke-linejoin:miter;stroke:rgb(0%,0%,0%);stroke-opacity:1;stroke-miterlimit:10;" d="M 169.457031 102.117188 L 194.226562 114.679688 "/>
<path style="fill:none;stroke-width:1.2;stroke-linecap:butt;stroke-linejoin:miter;stroke:rgb(0%,0%,0%);stroke-opacity:1;stroke-miterlimit:10;" d="M 194.226562 114.679688 L 195.730469 142.414062 "/>
<path style="fill:none;stroke-width:1.2;stroke-linecap:butt;stroke-linejoin:miter;stroke:rgb(0%,0%,0%);stroke-opacity:1;stroke-miterlimit:10;" d="M 195.730469 142.414062 L 172.464844 157.585938 "/>
<path style="fill:none;stroke-width:1.2;stroke-linecap:butt;stroke-linejoin:miter;stroke:rgb(0%,0%,0%);stroke-opacity:1;stroke-miterlimit:10;" d="M 220.5 154.980469 L 195.730469 142.414062 "/>
<path style="fill:none;stroke-width:1.2;stroke-linecap:butt;stroke-linejoin:miter;stroke:rgb(0%,0%,0%);stroke-opacity:1;stroke-miterlimit:10;" d="M 172.464844 157.585938 L 147.691406 145.019531 "/>
<path style="fill:none;stroke-width:1.2;stroke-linecap:butt;stroke-linejoin:miter;stroke:rgb(0%,0%,0%);stroke-opacity:1;stroke-miterlimit:10;" d="M 172.464844 157.585938 L 173.96875 185.320312 "/>
<path style="fill:none;stroke-width:1;stroke-linecap:butt;stroke-linejoin:miter;stroke:rgb(0%,0%,0%);stroke-opacity:1;stroke-miterlimit:10;" d="M 172.464844 157.585938 L 172.464844 157.585938 M 169.921875 159.175781 L 171.0625 160.238281 M 167.378906 160.769531 L 169.660156 162.890625 M 164.835938 162.363281 L 168.261719 165.542969 M 162.292969 163.953125 L 166.859375 168.195312 M 159.75 165.546875 L 165.460938 170.847656 M 157.207031 167.136719 L 164.058594 173.5 M 156.46875 167.601562 L 163.652344 174.273438 "/>
<path style=" stroke:none;fill-rule:nonzero;fill:rgb(0%,0%,0%);fill-opacity:1;" d="M 147.691406 145.019531 L 141.394531 172.511719 L 151.183594 173.007812 Z M 147.691406 145.019531 "/>
<path style="fill:none;stroke-width:1.2;stroke-linecap:butt;stroke-linejoin:miter;stroke:rgb(100%,0%,0%);stroke-opacity:1;stroke-miterlimit:10;" d="M 121.746094 135.113281 L 134.71875 140.066406 "/>
<path style="fill:none;stroke-width:1.2;stroke-linecap:butt;stroke-linejoin:miter;stroke:rgb(0%,0%,0%);stroke-opacity:1;stroke-miterlimit:10;" d="M 134.71875 140.066406 L 147.691406 145.019531 "/>
<path style="fill:none;stroke-width:1.2;stroke-linecap:butt;stroke-linejoin:miter;stroke:rgb(0%,0%,0%);stroke-opacity:1;stroke-miterlimit:10;" d="M 146.289062 172.761719 L 119.476562 179.996094 "/>
<path style="fill:none;stroke-width:1.2;stroke-linecap:butt;stroke-linejoin:miter;stroke:rgb(0%,0%,0%);stroke-opacity:1;stroke-miterlimit:10;" d="M 119.476562 179.996094 L 104.304688 156.730469 "/>
<path style="fill:none;stroke-width:1.2;stroke-linecap:butt;stroke-linejoin:miter;stroke:rgb(0%,0%,0%);stroke-opacity:1;stroke-miterlimit:10;" d="M 104.304688 156.730469 L 113.023438 145.921875 "/>
<path style="fill:none;stroke-width:1.2;stroke-linecap:butt;stroke-linejoin:miter;stroke:rgb(100%,0%,0%);stroke-opacity:1;stroke-miterlimit:10;" d="M 113.023438 145.921875 L 121.746094 135.113281 "/>
<path style="fill:none;stroke-width:1;stroke-linecap:butt;stroke-linejoin:miter;stroke:rgb(0%,0%,0%);stroke-opacity:1;stroke-miterlimit:10;" d="M 104.304688 156.730469 L 104.304688 156.730469 M 101.683594 158.191406 L 102.339844 159 M 99.0625 159.648438 L 100.378906 161.269531 M 96.441406 161.109375 L 98.414062 163.535156 M 93.820312 162.566406 L 96.449219 165.804688 M 91.199219 164.027344 L 94.484375 168.070312 M 88.578125 165.484375 L 92.523438 170.339844 M 85.957031 166.945312 L 90.558594 172.609375 M 83.332031 168.402344 L 88.59375 174.875 M 80.710938 169.863281 L 86.632812 177.144531 M 79.660156 170.445312 L 85.84375 178.054688 "/>
<path style="fill:none;stroke-width:1.2;stroke-linecap:butt;stroke-linejoin:miter;stroke:rgb(0%,0%,0%);stroke-opacity:1;stroke-miterlimit:10;" d="M 104.304688 156.730469 L 84.628906 137.128906 "/>
<path style=" stroke:none;fill-rule:nonzero;fill:rgb(100%,100%,100%);fill-opacity:1;" d="M 117.746094 128.613281 L 126.746094 128.613281 L 126.746094 141.613281 L 117.746094 141.613281 Z M 117.746094 128.613281 "/>
<g style="fill:rgb(100%,0%,0%);fill-opacity:1;">
  <use xlink:href="#glyph0-1" x="117.746094" y="138.514648"/>
</g>
<path style="fill:none;stroke-width:1.2;stroke-linecap:butt;stroke-linejoin:miter;stroke:rgb(0%,0%,0%);stroke-opacity:1;stroke-miterlimit:10;" d="M 82.75 174.25 L 56.804688 164.34375 "/>
<path style="fill:none;stroke-width:1.2;stroke-linecap:butt;stroke-linejoin:miter;stroke:rgb(0%,0%,0%);stroke-opacity:1;stroke-miterlimit:10;" d="M 56.804688 164.34375 L 46.027344 173.105469 "/>
<path style="fill:none;stroke-width:1.2;stroke-linecap:butt;stroke-linejoin:miter;stroke:rgb(100%,0%,0%);stroke-opacity:1;stroke-miterlimit:10;" d="M 46.027344 173.105469 L 35.25 181.863281 "/>
<path style=" stroke:none;fill-rule:nonzero;fill:rgb(100%,100%,100%);fill-opacity:1;" d="M 18.25 175.363281 L 35.25 175.363281 L 35.25 188.363281 L 18.25 188.363281 Z M 18.25 175.363281 "/>
<g style="fill:rgb(100%,0%,0%);fill-opacity:1;">
  <use xlink:href="#glyph0-2" x="18.25" y="185.264648"/>
  <use xlink:href="#glyph0-1" x="26.274414" y="185.264648"/>
</g>
<path style="fill:none;stroke-width:1.2;stroke-linecap:butt;stroke-linejoin:miter;stroke:rgb(0%,0%,0%);stroke-opacity:1;stroke-miterlimit:10;" d="M 84.628906 137.128906 L 71.222656 140.746094 "/>
<path style="fill:none;stroke-width:1.2;stroke-linecap:butt;stroke-linejoin:miter;stroke:rgb(100%,0%,0%);stroke-opacity:1;stroke-miterlimit:10;" d="M 71.222656 140.746094 L 57.8125 144.367188 "/>
<path style=" stroke:none;fill-rule:nonzero;fill:rgb(100%,100%,100%);fill-opacity:1;" d="M 40.8125 137.867188 L 57.8125 137.867188 L 57.8125 150.867188 L 40.8125 150.867188 Z M 40.8125 137.867188 "/>
<g style="fill:rgb(100%,0%,0%);fill-opacity:1;">
  <use xlink:href="#glyph0-2" x="40.8125" y="147.768555"/>
  <use xlink:href="#glyph0-1" x="48.836914" y="147.768555"/>
</g>
<path style="fill:none;stroke-width:1.2;stroke-linecap:butt;stroke-linejoin:miter;stroke:rgb(0%,0%,0%);stroke-opacity:1;stroke-miterlimit:10;" d="M 173.96875 185.320312 L 198.738281 197.882812 "/>
<path style="fill:none;stroke-width:1.2;stroke-linecap:butt;stroke-linejoin:miter;stroke:rgb(0%,0%,0%);stroke-opacity:1;stroke-miterlimit:10;" d="M 198.738281 197.882812 L 222.003906 182.714844 "/>
<path style="fill:none;stroke-width:1.2;stroke-linecap:butt;stroke-linejoin:miter;stroke:rgb(0%,0%,0%);stroke-opacity:1;stroke-miterlimit:10;" d="M 222.003906 182.714844 L 220.5 154.980469 "/>
<path style="fill:none;stroke-width:1.2;stroke-linecap:butt;stroke-linejoin:miter;stroke:rgb(0%,0%,0%);stroke-opacity:1;stroke-miterlimit:10;" d="M 222.003906 182.714844 L 234.390625 188.996094 "/>
<path style="fill:none;stroke-width:1.2;stroke-linecap:butt;stroke-linejoin:miter;stroke:rgb(100%,0%,0%);stroke-opacity:1;stroke-miterlimit:10;" d="M 234.390625 188.996094 L 246.777344 195.277344 "/>
<path style=" stroke:none;fill-rule:nonzero;fill:rgb(0%,0%,0%);fill-opacity:1;" d="M 220.5 154.980469 L 233.261719 129.828125 L 223.882812 126.980469 Z M 220.5 154.980469 "/>
<path style="fill:none;stroke-width:1.2;stroke-linecap:butt;stroke-linejoin:miter;stroke:rgb(0%,0%,0%);stroke-opacity:1;stroke-miterlimit:10;" d="M 220.5 154.980469 L 248.074219 158.3125 "/>
<path style="fill:none;stroke-width:1.2;stroke-linecap:butt;stroke-linejoin:miter;stroke:rgb(0%,0%,0%);stroke-opacity:1;stroke-miterlimit:10;" d="M 248.074219 158.3125 L 256.414062 147.207031 "/>
<path style="fill:none;stroke-width:1.2;stroke-linecap:butt;stroke-linejoin:miter;stroke:rgb(100%,0%,0%);stroke-opacity:1;stroke-miterlimit:10;" d="M 256.414062 147.207031 L 264.75 136.101562 "/>
<path style=" stroke:none;fill-rule:nonzero;fill:rgb(100%,100%,100%);fill-opacity:1;" d="M 256.75 129.601562 L 273.75 129.601562 L 273.75 142.601562 L 256.75 142.601562 Z M 256.75 129.601562 "/>
<g style="fill:rgb(100%,0%,0%);fill-opacity:1;">
  <use xlink:href="#glyph0-1" x="256.75" y="139.50293"/>
  <use xlink:href="#glyph0-2" x="265.150391" y="139.50293"/>
</g>
<path style=" stroke:none;fill-rule:nonzero;fill:rgb(100%,100%,100%);fill-opacity:1;" d="M 238.777344 188.777344 L 255.777344 188.777344 L 255.777344 201.777344 L 238.777344 201.777344 Z M 238.777344 188.777344 "/>
<g style="fill:rgb(100%,0%,0%);fill-opacity:1;">
  <use xlink:href="#glyph0-1" x="238.777344" y="198.678711"/>
  <use xlink:href="#glyph0-2" x="247.177734" y="198.678711"/>
</g>
</g>
</svg>

<svg xmlns="http://www.w3.org/2000/svg" xmlns:xlink="http://www.w3.org/1999/xlink" width="300pt" height="300pt" viewBox="0 0 300 300"><defs><symbol overflow="visible"><path d="M.547 1.938V-7.75h5.5v9.688zm.625-.61h4.266v-8.47H1.171zm0 0"/></symbol><symbol overflow="visible" id="a"><path d="M4.328-7.28c-.78 0-1.406.296-1.875.89-.46.585-.687 1.382-.687 2.39 0 1.012.226 1.813.687 2.406.47.586 1.094.875 1.875.875.79 0 1.414-.288 1.875-.874.457-.593.688-1.394.688-2.406 0-1.008-.23-1.805-.687-2.39-.46-.594-1.086-.89-1.875-.89zm0-.892c1.125 0 2.024.383 2.703 1.14C7.708-6.28 8.048-5.27 8.048-4c0 1.262-.34 2.273-1.016 3.03C6.353-.22 5.454.157 4.33.157S2.3-.22 1.625-.97c-.668-.75-1-1.757-1-3.03 0-1.27.332-2.28 1-3.03.676-.76 1.578-1.142 2.703-1.142zm0 0"/></symbol><symbol overflow="visible" id="b"><path d="M1.078-8.016h1.094v3.282H6.11v-3.282h1.077V0H6.11v-3.813H2.17V0H1.078zm0 0"/></symbol></defs><g><path fill="#fff" d="M0 0h300v300H0z"/><path d="M146.188 117.285m-2.4-1.8l-.472.93m-1.925-2.73l-.94 1.858m-1.458-3.66l-1.414 2.79m-.984-4.59l-1.887 3.718m-.512-5.52l-2.36 4.65m-.038-6.453l-2.832 5.582m.43-7.384l-3.3 6.51m.9-8.31l-3.772 7.44m1.375-9.242l-4.246 8.367m3.285-9.088l-4.438 8.742" stroke="#000" stroke-miterlimit="10" fill="none"/><path d="M146.188 117.285l23.27-15.168M147.69 145.02l-1.502-27.735M169.457 102.117l24.77 12.563M194.227 114.68l1.503 27.734M195.73 142.414l-23.265 15.172M220.5 154.98l-24.77-12.566M172.465 157.586L147.69 145.02M172.465 157.586l1.504 27.734" stroke-width="1.2" stroke="#000" stroke-miterlimit="10" fill="none"/><path d="M172.465 157.586m-2.543 1.59l1.14 1.062m-3.683.532l2.28 2.12m-4.824-.527l3.426 3.18m-5.97-1.59l4.567 4.242m-7.11-2.648l5.71 5.3m-8.253-3.71l6.852 6.363m-7.59-5.898l7.182 6.67" stroke="#000" stroke-miterlimit="10" fill="none"/><path d="M147.69 145.02l-6.295 27.492 9.79.496zm0 0"/><path d="M121.746 135.113l12.973 4.953" stroke-width="1.2" stroke="#f00" stroke-miterlimit="10" fill="none"/><path d="M134.72 140.066l12.97 4.954M146.29 172.762l-26.813 7.234M119.477 179.996l-15.172-23.266M104.305 156.73l8.718-10.808" stroke-width="1.2" stroke="#000" stroke-miterlimit="10" fill="none"/><path d="M113.023 145.922l8.723-10.81" stroke-width="1.2" stroke="#f00" stroke-miterlimit="10" fill="none"/><path d="M104.305 156.73m-2.62 1.46l.655.81m-3.278.648l1.317 1.622m-3.94-.16l1.974 2.425m-4.594-.97l2.63 3.24m-5.25-1.778l3.284 4.043m-5.906-2.586l3.945 4.856m-6.566-3.395l4.602 5.664M83.33 168.4l5.262 6.473m-7.883-5.012l5.923 7.282m-6.973-6.7l6.184 7.61" stroke="#000" stroke-miterlimit="10" fill="none"/><path d="M104.305 156.73l-19.676-19.6" stroke-width="1.2" stroke="#000" stroke-miterlimit="10" fill="none"/><path d="M117.746 128.613h9v13h-9zm0 0" fill="#fff"/><use xlink:href="#a" x="117.746" y="138.515" fill="#f00"/><path d="M82.75 174.25l-25.945-9.906M56.805 164.344l-10.778 8.76" stroke-width="1.2" stroke="#000" stroke-miterlimit="10" fill="none"/><path d="M46.027 173.105l-10.777 8.758" stroke-width="1.2" stroke="#f00" stroke-miterlimit="10" fill="none"/><path d="M18.25 175.363h17v13h-17zm0 0" fill="#fff"/><g fill="#f00"><use xlink:href="#b" x="18.25" y="185.265"/><use xlink:href="#a" x="26.274" y="185.265"/></g><path d="M84.63 137.13l-13.407 3.616" stroke-width="1.2" stroke="#000" stroke-miterlimit="10" fill="none"/><path d="M71.223 140.746l-13.41 3.62" stroke-width="1.2" stroke="#f00" stroke-miterlimit="10" fill="none"/><path d="M40.813 137.867h17v13h-17zm0 0" fill="#fff"/><g fill="#f00"><use xlink:href="#b" x="40.813" y="147.769"/><use xlink:href="#a" x="48.837" y="147.769"/></g><path d="M173.97 185.32l24.768 12.563M198.738 197.883l23.266-15.168M222.004 182.715L220.5 154.98M222.004 182.715l12.387 6.28" stroke-width="1.2" stroke="#000" stroke-miterlimit="10" fill="none"/><path d="M234.39 188.996l12.387 6.28" stroke-width="1.2" stroke="#f00" stroke-miterlimit="10" fill="none"/><path d="M220.5 154.98l12.762-25.152-9.38-2.848zm0 0"/><path d="M220.5 154.98l27.574 3.333M248.074 158.313l8.34-11.106" stroke-width="1.2" stroke="#000" stroke-miterlimit="10" fill="none"/><path d="M256.414 147.207l8.336-11.105" stroke-width="1.2" stroke="#f00" stroke-miterlimit="10" fill="none"/><path d="M256.75 129.602h17v13h-17zm0 0" fill="#fff"/><g fill="#f00"><use xlink:href="#a" x="256.75" y="139.503"/><use xlink:href="#b" x="265.15" y="139.503"/></g><path d="M238.777 188.777h17v13h-17zm0 0" fill="#fff"/><g fill="#f00"><use xlink:href="#a" x="238.777" y="198.679"/><use xlink:href="#b" x="247.178" y="198.679"/></g></g></svg>
